X: 192
T:Miss Cruickshank's Reel
T:Miss Hopkins Reel (1781)
G:reel
S:William Marshall, 1822
M:C|
L:1/8
Q:1/2=108
K:A
EFAc d2df|ecBA BAFA|EFAc d2df|ecBc A/A/A A2:|
fgag fedc|BABc AFFe|fgag fedc|BABc A/A/A A2 |
fgag fedc|BABc AFFA|EFAB cdef|ecBc A/A/A A2|]

But as collected in Cape Breton in the twentieth century, it was changed
into the lydian/major/mixolydian pentatonic mode and transposed to A:

